X: 1
T: Glasgow Peggy
N: 24 bar jig
R: Jig
S: Bruce Shawyer's collection.
K: D
M: 6/8
L: 1/8
B |\
"D"A2F FED | "G"G2G "(Em)"G2B | "D"A2F "(Bm)"FED | "Em"E3 "A7"E2B |\
"D"A2F FED | "G"G2G "(Em)"G2B | "A7"A2G F2E | "D"F3 D2 |]
|: A |\
"D"d2d dcd | "G"B2B "(Em)"B2d | "D"A2F "(Bm)"FED | "Em"E3 "A7"E2c |\
"D"d2d dcd | "G"B2B "(Em)"B2d | "A7"A2G F2E | "D"F3 D2 :|
